static/images/invite/profile-icon.svg

<svg width="11" height="13" viewBox="0 0 11 13" fill="none" xmlns="http://www.w3.org/2000/svg">
<path d="M5.50004 6.49999C7.16536 6.49999 8.51543 5.15685 8.51543 3.5C8.51543 1.84314 7.16536 0.5 5.50004 0.5C3.83468 0.5 2.48465 1.84314 2.48465 3.5C2.48465 5.15685 3.83468 6.49999 5.50004 6.49999Z" fill="#9C9C9C"/>
<path d="M7.07052 7.75H3.92949C2.1077 7.75 0.600006 9.25007 0.600006 11.0625C0.600006 11.5 0.788466 11.8751 1.16539 12.0626C1.73077 12.375 2.98719 12.75 5.5 12.75C8.01285 12.75 9.26921 12.375 9.8346 12.0626C10.1487 11.8751 10.4 11.5 10.4 11.0625C10.4 9.18754 8.89233 7.75 7.07052 7.75Z" fill="#9C9C9C"/>
</svg>

<svg xmlns="http://www.w3.org/2000/svg" width="11" height="13" fill="none"><path fill="#9C9C9C" d="M5.5 6.5a3.008 3.008 0 0 0 3.015-3c0-1.657-1.35-3-3.015-3a3.008 3.008 0 0 0-3.015 3c0 1.657 1.35 3 3.015 3ZM7.07 7.75H3.93C2.107 7.75.6 9.25.6 11.063c0 .437.188.812.565 1 .566.312 1.822.687 4.335.687s3.77-.375 4.335-.687c.314-.188.565-.563.565-1 0-1.875-1.508-3.313-3.33-3.313Z"/></svg>
